packages/icon/src/svg/globe.icon.svg

<svg width="24" height="24" viewBox="0 0 24 24" fill="none" xmlns="http://www.w3.org/2000/svg">
<path fill-rule="evenodd" clip-rule="evenodd" d="M2 12C2 6.47717 6.47717 2 12 2C14.6522 2 17.1957 3.05359 19.071 4.92896C20.9464 6.80432 22 9.34778 22 12C22 14.6522 20.9464 17.1957 19.071 19.071C17.1957 20.9464 14.6522 22 12 22C9.34778 22 6.80432 20.9464 4.92896 19.071C3.05359 17.1957 2 14.6522 2 12ZM4 12C4 11.3094 4.08752 10.6393 4.25208 10H7.71631C7.6394 10.6561 7.59998 11.3237 7.59998 12.0005C7.59998 12.6721 7.63977 13.3397 7.7179 14H4.25403C4.08667 13.3522 4 12.6805 4 12ZM5.07178 16C5.41833 16.6003 5.84448 17.1582 6.34314 17.6569C7.20435 18.5181 8.2417 19.1626 9.37048 19.5555C8.80896 18.4236 8.37476 17.2311 8.0769 16H5.07178ZM10.1428 16C10.5479 17.4644 11.1737 18.8605 12 20.1395C12.8263 18.8605 13.452 17.4644 13.8572 16H10.1428ZM15.9229 16C15.6248 17.2311 15.1902 18.4237 14.6285 19.5558C15.7577 19.163 16.7954 18.5183 17.6569 17.6569C18.1555 17.1582 18.5817 16.6003 18.9282 16H15.9229ZM19.746 14H16.2821C16.3604 13.3397 16.4 12.6721 16.4 12.0005C16.4 11.3285 16.3602 10.6606 16.282 10H19.746C19.9133 10.6478 20 11.3195 20 12C20 12.6805 19.9133 13.3522 19.746 14ZM14.2662 14H9.73376C9.64514 13.3409 9.59998 12.6731 9.59998 12.0005C9.59998 11.3223 9.64502 10.6544 9.73218 10H14.2661C14.3549 10.6594 14.4 11.3276 14.4 12.0005C14.4 12.6731 14.3549 13.3409 14.2662 14ZM8.07312 8H5.07019C6.02258 6.35352 7.5448 5.078 9.36731 4.44324C8.81018 5.56421 8.37317 6.75537 8.07312 8ZM10.1392 8H13.8568C13.4514 6.53516 12.8253 5.13855 11.999 3.8595C11.1818 5.12146 10.5491 6.51453 10.1392 8ZM15.9227 8H18.9282C18.5817 7.39966 18.1555 6.8418 17.6569 6.34314C16.7954 5.48169 15.7577 4.83691 14.6284 4.44409C15.1901 5.57617 15.6246 6.76892 15.9227 8Z" fill="white"/>
</svg>

<svg aria-label="globe icon" viewBox="0 0 24 24"><path fill-rule="evenodd" clip-rule="evenodd" d="M2 12C2 6.477 6.477 2 12 2A10 10 0 112 12zm2 0c0-.69.088-1.36.252-2h3.464a17.178 17.178 0 00.002 4H4.254A7.995 7.995 0 014 12zm1.072 4a8 8 0 004.298 3.555A16.992 16.992 0 018.077 16H5.072zm5.07 0A14.997 14.997 0 0012 20.14 15 15 0 0013.857 16h-3.714zm5.78 0a17.005 17.005 0 01-1.293 3.556 8 8 0 004.3-3.556h-3.006zm3.824-2h-3.464a16.98 16.98 0 000-4h3.464a7.997 7.997 0 010 4zm-5.48 0H9.734a15.003 15.003 0 01-.002-4h4.534a14.988 14.988 0 010 4zM8.073 8H5.07a8.024 8.024 0 014.297-3.557A16.874 16.874 0 008.073 8zm2.066 0h3.718a15.008 15.008 0 00-1.858-4.14A14.915 14.915 0 0010.139 8zm5.784 0h3.005a7.997 7.997 0 00-4.3-3.556A17.005 17.005 0 0115.923 8z"/></svg>
